flaticon/stationery/letter.svg

<svg xmlns="http://www.w3.org/2000/svg" width="32" height="32" viewBox="0 0 24 24">
    <path d="M 0 3.320312 L 0 20.679688 L 24 20.679688 L 24 3.320312 Z M 22.980469 19.660156 L 1.019531 19.660156 L 1.019531 7.742188 L 3.378906 9.867188 L 8.007812 9.867188 C 7.984375 10.046875 7.96875 10.226562 7.96875 10.414062 C 7.96875 11.175781 8.183594 11.890625 8.554688 12.5 L 7.269531 17.300781 L 9.050781 16.695312 L 10.292969 18.109375 L 11.292969 14.378906 C 11.523438 14.421875 11.757812 14.441406 12 14.441406 C 12.242188 14.441406 12.476562 14.421875 12.707031 14.378906 L 13.707031 18.109375 L 14.949219 16.695312 L 16.734375 17.300781 L 15.445312 12.5 C 15.816406 11.890625 16.03125 11.175781 16.03125 10.414062 C 16.03125 10.226562 16.015625 10.046875 15.992188 9.867188 L 20.621094 9.867188 L 22.980469 7.742188 Z M 14.644531 13.449219 L 15.253906 15.71875 L 14.632812 15.511719 L 14.199219 16.003906 L 13.683594 14.074219 C 14.03125 13.910156 14.355469 13.699219 14.644531 13.449219 Z M 12 13.421875 C 10.339844 13.421875 8.992188 12.070312 8.992188 10.414062 C 8.992188 8.753906 10.339844 7.402344 12 7.402344 C 13.660156 7.402344 15.007812 8.753906 15.007812 10.414062 C 15.007812 12.070312 13.660156 13.421875 12 13.421875 Z M 9.355469 13.449219 C 9.644531 13.699219 9.96875 13.910156 10.316406 14.074219 L 9.800781 16.003906 L 9.367188 15.511719 L 8.746094 15.71875 Z M 22.980469 6.367188 L 20.230469 8.847656 L 15.710938 8.847656 C 15.101562 7.398438 13.667969 6.382812 12 6.382812 C 10.332031 6.382812 8.898438 7.398438 8.289062 8.847656 L 3.769531 8.847656 L 1.019531 6.367188 L 1.019531 4.339844 L 22.980469 4.339844 Z M 22.980469 6.367188"/>
</svg>

<svg xmlns="http://www.w3.org/2000/svg" width="32" height="32" viewBox="0 0 24 24">
    <path d="M0 3.32v17.36h24V3.32zm22.98 16.34H1.02V7.742l2.359 2.125h4.629a4 4 0 0 0 .547 2.633L7.27 17.3l1.78-.605 1.243 1.414 1-3.73c.23.043.465.062.707.062.242 0 .477-.02.707-.062l1 3.73 1.242-1.414 1.785.606-1.289-4.801a4 4 0 0 0 .547-2.633h4.63l2.358-2.125zm-8.335-6.21l.609 2.269-.621-.207-.434.492-.515-1.93c.347-.164.671-.375.96-.625zM12 13.421a3.012 3.012 0 0 1-3.008-3.008A3.012 3.012 0 0 1 12 7.402a3.012 3.012 0 0 1 3.008 3.012A3.012 3.012 0 0 1 12 13.422zm-2.645.027c.29.25.614.461.961.625l-.515 1.93-.434-.492-.62.207zM22.98 6.367l-2.75 2.48h-4.52a4.025 4.025 0 0 0-7.42 0H3.77l-2.75-2.48V4.34h21.96zm0 0"/>
</svg>
